dist/images/title-icons/link-icon.svg

<svg width="33" height="18" viewBox="0 0 33 18" fill="none" xmlns="http://www.w3.org/2000/svg">
<path d="M20.4545 2H24.4091C25.2746 2 26.1317 2.18106 26.9313 2.53284C27.731 2.88463 28.4575 3.40024 29.0696 4.05025C29.6816 4.70026 30.1671 5.47194 30.4983 6.32122C30.8295 7.1705 31 8.08075 31 9C31 9.91925 30.8295 10.8295 30.4983 11.6788C30.1671 12.5281 29.6816 13.2997 29.0696 13.9497C28.4575 14.5998 27.731 15.1154 26.9313 15.4672C26.1317 15.8189 25.2746 16 24.4091 16H20.4545M12.5455 16H8.59091C7.72538 16 6.86832 15.8189 6.06868 15.4672C5.26903 15.1154 4.54246 14.5998 3.93043 13.9497C2.6944 12.637 2 10.8565 2 9C2 7.14348 2.6944 5.36301 3.93043 4.05025C5.16647 2.7375 6.84289 2 8.59091 2H12.5455" stroke="#2D2E33" stroke-width="3" stroke-linecap="round" stroke-linejoin="round"/>
<path d="M11.2273 9H21.7727" stroke="#2D2E33" stroke-width="3" stroke-linecap="round" stroke-linejoin="round"/>
</svg>

<svg width="33" height="18" fill="none" xmlns="http://www.w3.org/2000/svg"><path d="M20.454 2h3.955a6.25 6.25 0 0 1 2.522.533A6.58 6.58 0 0 1 29.07 4.05a7.044 7.044 0 0 1 1.428 2.271C30.83 7.171 31 8.081 31 9c0 .92-.17 1.83-.502 2.679a7.043 7.043 0 0 1-1.428 2.27 6.58 6.58 0 0 1-2.139 1.518A6.26 6.26 0 0 1 24.41 16h-3.954m-7.91 0H8.591a6.26 6.26 0 0 1-2.522-.533A6.579 6.579 0 0 1 3.93 13.95C2.694 12.637 2 10.857 2 9c0-1.857.694-3.637 1.93-4.95C5.166 2.737 6.843 2 8.59 2h3.956m-1.319 7h10.546" stroke="#2D2E33" stroke-width="3" stroke-linecap="round" stroke-linejoin="round"/></svg>
